_includes/icons/ios-wallet.svg

<svg fill="#666" height="50" viewBox="0 0 50 50" width="50" xmlns="http://www.w3.org/2000/svg"><path d="m34.625 3.03125c-.78125.011719-1.644531.183594-2.71875.46875-3.082031.8125-20.8125 5.71875-20.8125 5.71875-.03125.007813-.0625.019531-.09375.03125-2.808594 1.058594-4.578125 2.054688-5.65625 3.5-1.070312 1.4375-1.308594 3.164063-1.3125 5.21875v.03125.625c-.011719.125-.03125.25-.03125.375v21.375c0 3.089844 2.535156 5.625 5.625 5.625h30.75c3.089844 0 5.625-2.535156 5.625-5.625v-21.53125c0-3.1875-2.851562-5.84375-6-5.84375h-30c-1.121094 0-2.128906.320313-2.96875.84375.726563-.894531 2.097656-1.738281 4.59375-2.6875.027344-.011719.035156-.019531.0625-.03125.113281-.03125 17.738281-4.902344 20.71875-5.6875.992188-.261719 1.734375-.398437 2.25-.40625.515625-.007812.757813.070313.875.15625.117188.085938.214844.253906.3125.65625s.15625 1.015625.15625 1.8125v3.34375h2v-3.34375c0-.867187-.054687-1.601562-.21875-2.28125-.164062-.679687-.484375-1.347656-1.0625-1.78125s-1.3125-.574219-2.09375-.5625zm-24.625 11.96875h30c1.949219 0 4 1.9375 4 3.84375v21.53125c0 2.007813-1.617187 3.625-3.625 3.625h-30.75c-2.011719 0-3.625-1.613281-3.625-3.625v-19.90625l.03125-1.65625c.058594-.679687.40625-1.648437 1.0625-2.40625.714844-.828125 1.691406-1.40625 2.90625-1.40625zm28.5 12c-1.382812 0-2.5 1.117188-2.5 2.5 0 1.382813 1.117188 2.5 2.5 2.5 1.378906 0 2.5-1.117187 2.5-2.5 0-1.382812-1.121094-2.5-2.5-2.5z"/></svg>

<svg xmlns="http://www.w3.org/2000/svg" viewBox="0 0 50 50" width="50" height="50" fill="#666"><path d="M 34.625 3.03125 C 33.84375 3.042969 32.980469 3.214844 31.90625 3.5 C 28.824219 4.3125 11.09375 9.21875 11.09375 9.21875 C 11.0625 9.226563 11.03125 9.238281 11 9.25 C 8.191406 10.308594 6.421875 11.304688 5.34375 12.75 C 4.273438 14.1875 4.035156 15.914063 4.03125 17.96875 C 4.03125 17.980469 4.03125 17.988281 4.03125 18 L 4.03125 18.625 C 4.019531 18.75 4 18.875 4 19 L 4 40.375 C 4 43.464844 6.535156 46 9.625 46 L 40.375 46 C 43.464844 46 46 43.464844 46 40.375 L 46 18.84375 C 46 15.65625 43.148438 13 40 13 L 10 13 C 8.878906 13 7.871094 13.320313 7.03125 13.84375 C 7.757813 12.949219 9.128906 12.105469 11.625 11.15625 C 11.652344 11.144531 11.660156 11.136719 11.6875 11.125 C 11.800781 11.09375 29.425781 6.222656 32.40625 5.4375 C 33.398438 5.175781 34.140625 5.039063 34.65625 5.03125 C 35.171875 5.023438 35.414063 5.101563 35.53125 5.1875 C 35.648438 5.273438 35.746094 5.441406 35.84375 5.84375 C 35.941406 6.246094 36 6.859375 36 7.65625 L 36 11 L 38 11 L 38 7.65625 C 38 6.789063 37.945313 6.054688 37.78125 5.375 C 37.617188 4.695313 37.296875 4.027344 36.71875 3.59375 C 36.140625 3.160156 35.40625 3.019531 34.625 3.03125 Z M 10 15 L 40 15 C 41.949219 15 44 16.9375 44 18.84375 L 44 40.375 C 44 42.382813 42.382813 44 40.375 44 L 9.625 44 C 7.613281 44 6 42.386719 6 40.375 L 6 20.46875 L 6.03125 18.8125 C 6.089844 18.132813 6.4375 17.164063 7.09375 16.40625 C 7.808594 15.578125 8.785156 15 10 15 Z M 38.5 27 C 37.117188 27 36 28.117188 36 29.5 C 36 30.882813 37.117188 32 38.5 32 C 39.878906 32 41 30.882813 41 29.5 C 41 28.117188 39.878906 27 38.5 27 Z"/></svg>
